X: 1569
T: Jack Heagney's Polka
B: australian traditional tunes wiki
M:2/4
L:1/8
R: Polka
Q: 1/4=100
K:G
V:1 
"G"Bd G>A|B/B/B/B/ B>B|Bd dB|"C"cc c>c|""cd e>f|
"D7"ed d>c|1cd e>f|ed "G"d>d:|2"D"d/d/d/d/ ""ef|"G"g3d/d/||
|:"G"dB/B/ BG/G/|GD D>G|"A7" FE EE|"C"E2A>B|"D7"cB AG|
"D" F/F/F/F/ FE|1D/D/D/D/ ED|"G"B,3d/d/:|2"D"D/D/D/D/ EF|"G"G4||
% abcbook-tune_id 6342d53a578e9192dcc1c265


% abcbook-boost 0
% abcbook-tablature 
% abcbook-transpose 
% abcbook-lastupdated 1665324371533
% abcbook-soundfonts 
% abcbook-repeats 1
% NFF Book 2019

